src/assets/media/svg/sprite/vote.svg

<svg xmlns="http://www.w3.org/2000/svg" width="24" height="24" fill="none"><path d="m20.25 5.75-7.875 7.5L9 9.875l-1.5 1.5 4.875 4.875 9.375-9z"/><path d="M2.375 2.375H16.5v2.25H4.625v14.75h14.75V14h2.25v7.625H2.375z" clip-rule="evenodd"/></svg>

<svg width="24" height="24" viewBox="0 0 24 24" fill="none" xmlns="http://www.w3.org/2000/svg">
<path d="M20.25 5.75L12.375 13.25L9 9.875L7.5 11.375L12.375 16.25L21.75 7.25L20.25 5.75Z"/>
<path fill-rule="evenodd" clip-rule="evenodd" d="M2.375 2.375H16.5V4.625H4.625V19.375H19.375V14H21.625V21.625H2.375V2.375Z"/>
</svg>
